X:1
T:Welsh Dragons
T:Seconds
R:Hornpipe
C:Paul Ritchie, Arr. Adam Blaine
M:2/4
L:1/16
Q:"82 bpm"
K:D
[|: {g}A2{g}B{d}c {g}eA{d}ce | {g}fA{g}dA {g}ef{g}e2 | ae{A}ea {g}ae{g}c{d}A | [1 {g}B{e}B{G}BA {g}Bc{G}cB | [2  {g}B2>A2 {g}Bc{G}cB ] |
[1 {G}A2{g}B{d}c {g}eA{d}ce | {g}fA{g}dA {g}ef{g}e2 | ae{A}ea c{G}cBA | {g}B{G}B{g}eG {g}A2e2 :|]
[2 {G}A2>{d}c2 {g}eA{d}ce | {g}fA{g}dA {g}ef{g}e2 | ae{A}ea c{G}cBA | {g}B{G}B{g}eG {g}A2{g}cd |]
[|: {g}eA{d}ce {G}eA{g}c{d}A | {g}fAd{g}(f f)A{g}df | {g}ea{g}aB {g}c{G}c{g}eA | {g}B{e}B{G}BA [1 {g}B{G}B{g}cd [2 {g}B{G}Be2 |
[1 {g}eA{d}ce {G}eA{g}c{d}A | {g}fAd{g}(f f)e{ag}a2 | ea{g}ae {g}c{G}c{g}BA | {g}B{G}B{g}eG {g}A2{g}cd :|]
[2 {g}A2>{d}c2 {g}eA{d}ce | {g}fA{g}dA {g}ef{g}e2 | ae{A}ea c{G}cBA [M: 3/4]| {g}B{G}B{g}eG {g}(A4 A2){g}cd |]
[M: 2/4][| {g}c3 A3 c2 | {g}d3 A3 d2 | {g}e2d2 {g}c2A2 | (G4 G2){g}cd |
{g}c3 A3 c2 | {g}d3 A3 d2 | {g}ca{g}ae a{g}adc | {g}d{G}d{g}cd {g}c2{g}cd |
{g}c3 A3 c2 | {g}d3 A3 d2 | {g}e2d2 {g}c2A2 | (G4 G2){g}e2 |
{g}A2>{d}c2 {g}eA{d}ce | {g}fe{g}da ef{g}e2 | {g}ca{g}ae a{g}adc [M: 1/4]|  {g}d{G}d{g}cd  [M: 2/4]  "Strathspey Time" |{g}c8 |]
